Obsidian-SemiLight/actions/16s/run-build.svg

<svg viewBox="0 0 16 16" xmlns="http://www.w3.org/2000/svg"><path d="m7 2v1.1015625a5 5 0 0 0 -1.7539062.7304687l-.78125-.78125-1.4140626 1.4140626.78125.78125a5 5 0 0 0 -.7265624 1.7539062h-1.1054688v2h1.1015625a5 5 0 0 0 .7304687 1.753906l-.78125.78125 1.4140626 1.414063.78125-.78125a5 5 0 0 0 1.7539062.726562v1.105469h2v-1.101562a5 5 0 0 0 1.753906-.730469l.78125.78125 1.414063-1.414063-.78125-.78125a5 5 0 0 0 .726562-1.753906h1.105469v-2h-1.101562a5 5 0 0 0 -.730469-1.7539062l.78125-.78125-1.414063-1.4140626-.78125.78125a5 5 0 0 0 -1.753906-.7265624v-1.1054688zm1 2a4 4 0 0 1 2.869141 1.2128906 4 4 0 0 1 1.130859 2.7871094 4 4 0 0 1 -1.212891 2.869141 4 4 0 0 1 -2.787109 1.130859 4 4 0 0 1 -2.8691406-1.212891 4 4 0 0 1 -1.1308594-2.787109 4 4 0 0 1 1.2128906-2.8691406 4 4 0 0 1 2.7871094-1.1308594zm-1 2v4l3-2z" fill="#4d4d4d"/></svg>

<svg xmlns="http://www.w3.org/2000/svg" viewBox="0 0 16 16">
  <defs id="defs3051">
    <style type="text/css" id="current-color-scheme">
      .ColorScheme-Text {
        color:#4d4d4d;
      }
      </style>
  </defs>
 <path style="fill:currentColor;fill-opacity:1;stroke:none" 
     d="M 7 2 L 7 3.1015625 A 5 5 0 0 0 5.2460938 3.8320312 L 4.4648438 3.0507812 L 3.0507812 4.4648438 L 3.8320312 5.2460938 A 5 5 0 0 0 3.1054688 7 L 2 7 L 2 9 L 3.1015625 9 A 5 5 0 0 0 3.8320312 10.753906 L 3.0507812 11.535156 L 4.4648438 12.949219 L 5.2460938 12.167969 A 5 5 0 0 0 7 12.894531 L 7 14 L 9 14 L 9 12.898438 A 5 5 0 0 0 10.753906 12.167969 L 11.535156 12.949219 L 12.949219 11.535156 L 12.167969 10.753906 A 5 5 0 0 0 12.894531 9 L 14 9 L 14 7 L 12.898438 7 A 5 5 0 0 0 12.167969 5.2460938 L 12.949219 4.4648438 L 11.535156 3.0507812 L 10.753906 3.8320312 A 5 5 0 0 0 9 3.1054688 L 9 2 L 7 2 z M 8 4 A 4 4 0 0 1 10.869141 5.2128906 A 4 4 0 0 1 12 8 A 4 4 0 0 1 10.787109 10.869141 A 4 4 0 0 1 8 12 A 4 4 0 0 1 5.1308594 10.787109 A 4 4 0 0 1 4 8 A 4 4 0 0 1 5.2128906 5.1308594 A 4 4 0 0 1 8 4 z M 7 6 L 7 10 L 10 8 L 7 6 z "
     class="ColorScheme-Text"
     />
</svg>
